X: 42075
T: Waltz Of The White Lilies
R: waltz
M: 3/4
K: Gmajor
z2 z DEF|:G3 GBD|EF G3 E|c3 B A2|A3 ABc|B3 Bcd|c3 deg|
f3 e d2|d3 FGA|B2 G3 D|E2 G3 E|D2 GDB2|A3 BBA|
G2 GA B/A/G|d2 g3 B|1 A3 GAB|G3 DEF:|2 A3 GAB|G3 DBd|
|:g2 gdB2|gd Bd fa|g2 gab2|ga bgd2|c2 cBA2|A3 B c/B/A|
f2fed2|d3ABd|g2gdB2|gd Bd fa|g2gab2|ga bgd2|
DF GA Ac|e2A2D2|1 G3G GF|G3ABd:|2 G3G GF|G3 DEF|

